modules/hawcons-stroke/icons/icon-21-eye-hidden.svg

<?xml version="1.0" encoding="UTF-8" standalone="no"?>
<svg width="32px" height="32px" viewBox="0 0 32 32" version="1.1" xmlns="http://www.w3.org/2000/svg" xmlns:xlink="http://www.w3.org/1999/xlink" xmlns:sketch="http://www.bohemiancoding.com/sketch/ns">
    <!-- Generator: Sketch 3.0.3 (7891) - http://www.bohemiancoding.com/sketch -->
    <title>icon 21 eye hidden</title>
    <desc>Created with Sketch.</desc>
    <defs></defs>
    <g id="Page-1" stroke="none" stroke-width="1" fill="none" fill-rule="evenodd" sketch:type="MSPage">
        <g id="icon-21-eye-hidden" sketch:type="MSArtboardGroup" fill="#929292">
            <path d="M8.10869891,20.8913011 C4.61720816,18.8301147 3,16 3,16 C3,16 7,9 16,9 C17.3045107,9 18.5039752,9.14706466 19.6014388,9.39856122 L18.7519017,10.2480983 C17.8971484,10.0900546 16.9800929,10 16,10 C8,10 4.19995117,16 4.19995117,16 C4.19995117,16 5.71472808,18.3917225 8.84492713,20.1550729 L8.10869891,20.8913011 L8.10869891,20.8913011 L8.10869891,20.8913011 Z M12.398561,22.601439 C13.4960246,22.8529356 14.6954892,23.0000001 16,23 C25,22.999999 29,16 29,16 C29,16 27.3827918,13.1698856 23.8913008,11.1086992 L23.1550727,11.8449273 C26.2852719,13.6082776 27.8000488,16 27.8000488,16 C27.8000488,16 24,21.999999 16,22 C15.019907,22.0000001 14.1028515,21.9099455 13.2480981,21.7519019 L12.398561,22.601439 L12.398561,22.601439 L12.398561,22.601439 Z M19.8986531,15.1013469 C19.9649658,15.3902115 20,15.6910144 20,16 C20,18.2091391 18.2091391,20 16,20 C15.6910144,20 15.3902115,19.9649658 15.1013469,19.8986531 L16,19 C16.7677669,19.0000001 17.5355339,18.7071068 18.1213203,18.1213203 C18.7071068,17.5355339 19.0000001,16.7677669 19,16 L19.8986531,15.1013469 L19.8986531,15.1013469 L19.8986531,15.1013469 Z M16.8986531,12.1013469 C16.6097885,12.0350342 16.3089856,12 16,12 C13.7908609,12 12,13.7908609 12,16 C12,16.3089856 12.0350342,16.6097885 12.1013469,16.8986531 L13,16 C12.9999999,15.2322331 13.2928932,14.4644661 13.8786797,13.8786797 C14.4644661,13.2928932 15.2322331,12.9999999 16,13 L16.8986531,12.1013469 L16.8986531,12.1013469 L16.8986531,12.1013469 Z M24,7 L7,24 L8,25 L25,8 L24,7 L24,7 Z" id="eye-hidden" sketch:type="MSShapeGroup"></path>
        </g>
    </g>
</svg>

<svg width="32" height="32" viewBox="0 0 32 32" xmlns="http://www.w3.org/2000/svg"><path d="M8.109 20.891C4.617 18.831 3 16 3 16s4-7 13-7c1.305 0 2.504.147 3.601.399l-.85.85A15.107 15.107 0 0 0 16 10c-8 0-11.8 6-11.8 6s1.515 2.392 4.645 4.155l-.736.736zm4.29 1.71c1.097.252 2.296.399 3.601.399 9 0 13-7 13-7s-1.617-2.83-5.109-4.891l-.736.736C26.285 13.608 27.8 16 27.8 16S24 22 16 22c-.98 0-1.897-.09-2.752-.248l-.85.85zm7.5-7.5a4 4 0 0 1-4.797 4.797L16 19a2.99 2.99 0 0 0 2.121-.879A2.99 2.99 0 0 0 19 16l.899-.899zm-3-3a4 4 0 0 0-4.797 4.797L13 16c0-.768.293-1.536.879-2.121A2.99 2.99 0 0 1 16 13l.899-.899zM24 7L7 24l1 1L25 8l-1-1z" fill="#929292" fill-rule="evenodd"/></svg>
